lib/brands/icons/eclipse.svg

<svg xmlns="http://www.w3.org/2000/svg" fill="none" aria-hidden="true" viewBox="0 0 48 48"><g id="eclipse-Icon"><g id="Group"><path id="Vector" fill="#2C2255" d="M41.377 28.6507C40.6405 31.1578 39.2747 33.4055 37.2762 35.3908L37.1883 35.4787C34.6928 37.9581 31.7868 39.4447 28.473 39.9448C27.6357 40.0711 26.7736 40.1374 25.8838 40.1374C21.4326 40.1374 17.6262 38.5566 14.4607 35.3908C12.4751 33.4048 11.1189 31.1578 10.388 28.6507H41.377ZM41.9991 24.902C41.9694 25.4992 41.9077 26.0829 41.8183 26.6553L41.7874 26.8457H9.98051C9.88527 26.2757 9.8178 25.6948 9.78146 25.1006L9.77051 24.902H41.9991ZM41.7868 21.1533C41.8826 21.7236 41.9504 22.3045 41.987 22.8985L41.9981 23.097H9.77051C9.79988 22.5001 9.86103 21.9164 9.94987 21.3438L9.98051 21.1533H41.7868Z"/><path id="Vector_2" fill="#2C2255" d="M41.3774 19.348C40.6416 16.834 39.2754 14.5764 37.2759 12.5766C34.7675 10.0681 31.8403 8.5632 28.4985 8.05682C27.6532 7.92858 26.7825 7.86133 25.8835 7.86133C21.4323 7.86133 17.6256 9.43353 14.4605 12.5766C12.4742 14.5764 11.1173 16.834 10.3867 19.348"/><path id="Vector_3" fill="#F7941E" d="M8.81209 24C8.81209 15.4866 15.206 8.41286 23.524 7.16869C23.3176 7.1611 23.1102 7.15286 22.9019 7.15286C13.5676 7.15286 6 14.6957 6 24C6 33.3046 13.5673 40.8471 22.9019 40.8471C23.1109 40.8471 23.3182 40.8392 23.5253 40.8317C15.206 39.5875 8.81209 32.5137 8.81209 24Z"/><g id="Group_2"><path id="Vector_4" fill="url(#paint0_linear_94_16944)" d="M36.8516 23.0967C36.7975 22.4305 36.6855 21.7807 36.518 21.153H15.2509C15.0835 21.7803 14.9711 22.4301 14.917 23.0967H36.8516Z"/><path id="Vector_5" fill="url(#paint1_linear_94_16944)" d="M36.8518 24.902H14.9175C14.9715 25.5682 15.0833 26.218 15.2511 26.8457H36.5185C36.6859 26.218 36.7977 25.5682 36.8518 24.902Z"/><path id="Vector_6" fill="url(#paint2_linear_94_16944)" d="M25.8845 35.007C30.3011 35.007 34.1082 32.405 35.8613 28.6507H15.9077C17.6609 32.405 21.4679 35.007 25.8845 35.007Z"/></g><path id="Vector_7" fill="white" d="M41.7832 26.8454C41.6747 27.4599 41.5326 28.0625 41.3566 28.6507H10.3877C10.2113 28.0622 10.0884 27.4596 9.98022 26.8454H41.7832ZM41.9708 23.0967C41.9886 23.4076 42.0001 23.7198 42.0001 24.0346C42.0001 24.3257 41.9915 24.6148 41.9764 24.902H9.76495C9.74978 24.6148 9.74121 24.3257 9.74121 24.0346C9.74121 23.7198 9.75275 23.4073 9.77055 23.0967H41.9708ZM41.2511 19.348C41.4301 19.9362 41.5735 20.5391 41.6849 21.1533H9.98055C10.0917 20.5388 10.2074 19.9358 10.3867 19.348H41.2511Z"/></g></g><defs><linearGradient id="paint0_linear_94_16944" x1="25.8842" x2="25.8842" y1="42.328" y2="18.0527" gradientUnits="userSpaceOnUse"><stop offset="0.3033" stop-color="#473788"/><stop offset="0.872" stop-color="#2C2255"/></linearGradient><linearGradient id="paint1_linear_94_16944" x1="25.8844" x2="25.8844" y1="42.3283" y2="18.053" gradientUnits="userSpaceOnUse"><stop offset="0.3033" stop-color="#473788"/><stop offset="0.872" stop-color="#2C2255"/></linearGradient><linearGradient id="paint2_linear_94_16944" x1="25.8843" x2="25.8843" y1="42.3277" y2="18.0536" gradientUnits="userSpaceOnUse"><stop offset="0.3033" stop-color="#473788"/><stop offset="0.8631" stop-color="#2C2255"/></linearGradient></defs></svg>

<svg xmlns="http://www.w3.org/2000/svg" fill="none" aria-hidden="true" viewBox="0 0 48 48"><path fill="#2C2255" d="M41.377 28.65c-.736 2.508-2.102 4.756-4.1 6.74l-.089.089c-2.495 2.48-5.401 3.966-8.715 4.466-.837.126-1.7.192-2.59.192-4.45 0-8.257-1.58-11.422-4.746-1.986-1.986-3.342-4.233-4.073-6.74h30.989Zm.622-3.748a16.94 16.94 0 0 1-.18 1.753l-.032.19H9.981c-.096-.57-.163-1.15-.2-1.744l-.01-.199h32.228Zm-.212-3.749c.096.57.163 1.152.2 1.745l.011.199H9.771c.029-.597.09-1.18.179-1.753l.03-.19h31.807Zm-.41-1.805c-.735-2.514-2.102-4.772-4.101-6.771-2.509-2.509-5.436-4.014-8.778-4.52a17.402 17.402 0 0 0-2.614-.196c-4.452 0-8.258 1.573-11.424 4.716-1.986 2-3.343 4.257-4.073 6.771"/><path fill="#F7941E" d="M8.812 24c0-8.513 6.394-15.587 14.712-16.831a16.034 16.034 0 0 0-.622-.016C13.568 7.153 6 14.696 6 24c0 9.305 7.567 16.847 16.902 16.847.209 0 .416-.008.623-.015C15.206 39.587 8.812 32.514 8.812 24Z"/><path fill="url(#a)" d="M36.852 23.097a10.982 10.982 0 0 0-.334-1.944H15.251a10.98 10.98 0 0 0-.334 1.944h21.935Z"/><path fill="url(#b)" d="M36.852 24.902H14.918c.054.666.165 1.316.333 1.944H36.52a11.03 11.03 0 0 0 .333-1.944Z"/><path fill="url(#c)" d="M25.884 35.007c4.417 0 8.224-2.602 9.977-6.356H15.908a11.006 11.006 0 0 0 9.976 6.356Z"/><path fill="#fff" d="M41.783 26.845a15.87 15.87 0 0 1-.426 1.806h-30.97a15.869 15.869 0 0 1-.407-1.806h31.803Zm.188-3.748c.018.31.03.623.03.938 0 .29-.01.58-.025.867H9.765a16.438 16.438 0 0 1-.024-.867c0-.315.012-.628.03-.938h32.2Zm-.72-3.749c.18.588.323 1.191.434 1.805H9.98c.11-.614.226-1.217.406-1.805H41.25Z"/><defs><linearGradient id="a" x1="25.884" x2="25.884" y1="42.328" y2="18.053" gradientUnits="userSpaceOnUse"><stop offset=".303" stop-color="#473788"/><stop offset=".872" stop-color="#2C2255"/></linearGradient><linearGradient id="b" x1="25.884" x2="25.884" y1="42.328" y2="18.053" gradientUnits="userSpaceOnUse"><stop offset=".303" stop-color="#473788"/><stop offset=".872" stop-color="#2C2255"/></linearGradient><linearGradient id="c" x1="25.884" x2="25.884" y1="42.328" y2="18.054" gradientUnits="userSpaceOnUse"><stop offset=".303" stop-color="#473788"/><stop offset=".863" stop-color="#2C2255"/></linearGradient></defs></svg>
